Icons/rename_me_pushbullet.svg

<svg viewBox="0 0 48 48" xmlns:xlink="http://www.w3.org/1999/xlink">
 <defs>
  <linearGradient id="0">
   <stop stop-opacity="0"/>
   <stop offset="1"/>
  </linearGradient>
  <linearGradient xlink:href="#0" id="1" gradientUnits="userSpaceOnUse" gradientTransform="translate(4e-7,-48)" y1="47" x2="0" y2="1"/>
  <clipPath id="2">
   <g transform="translate(0,-1004.3622)">
    <rect rx="4" y="1005.36" x="1" height="46" width="46" fill="#1890d0"/>
   </g>
  </clipPath>
  <clipPath id="3">
   <g transform="translate(0,-1004.3622)">
    <rect rx="4" y="1005.36" x="1" height="46" width="46" fill="#1890d0"/>
   </g>
  </clipPath>
 </defs>
 <g>
  <g transform="translate(0,-1004.3622)">
   <path d="m 5,1006.3622 c -2.216,0 -4,1.784 -4,4 l 0,37.25 c 0,2.216 1.784,4 4,4 l 38,0 c 2.216,0 4,-1.784 4,-4 l 0,-37.25 c 0,-2.216 -1.784,-4 -4,-4 l -38,0 z m -4,41.5 0,0.5 c 0,2.216 1.784,4 4,4 l 38,0 c 2.216,0 4,-1.784 4,-4 l 0,-0.5 c 0,2.216 -1.784,4 -4,4 l -38,0 c -2.216,0 -4,-1.784 -4,-4 z" opacity="0.02"/>
   <path d="m 1,1047.6122 0,0.25 c 0,2.216 1.784,4 4,4 l 38,0 c 2.216,0 4,-1.784 4,-4 l 0,-0.25 c 0,2.216 -1.784,4 -4,4 l -38,0 c -2.216,0 -4,-1.784 -4,-4 z" opacity="0.05"/>
   <rect width="46" height="46" x="1" y="1005.61" rx="4" opacity="0.1"/>
  </g>
 </g>
 <g>
  <g transform="translate(0,-1004.3622)">
   <rect rx="4" y="1005.36" x="1" height="46" width="46" fill="#64b34e"/>
  </g>
 </g>
 <g>
  <rect transform="scale(1,-1)" width="46" height="46" x="1" y="-46.998" rx="4" opacity="0.1" fill="url(#1)"/>
 </g>
 <g>
  <g clip-path="url(#2)">
   <g opacity="0.1">
    <g>
     <path d="M 13 15 L 17 15 C 17.550781 15 18 15.445312 18 15.996094 L 18 32 C 18 32.550781 17.550781 33 17 33 L 13 33 C 12.449219 33 12 32.550781 12 32 L 12 15.996094 C 12 15.445312 12.449219 15 13 15 Z M 13 15 "/>
     <path d="M 30 15 C 34.972656 15 39 19.027344 39 24 C 39 28.96875 34.972656 33 30 33 C 25.03125 33 21 28.96875 21 24 C 21 19.027344 25.03125 15 30 15 Z M 30 15 "/>
     <path d="M 20.996094 15 L 26 15 C 26.550781 15 27 15.445312 27 15.996094 L 27 32 C 27 32.550781 26.550781 33 26 33 L 20.996094 33 C 20.445312 33 20 32.550781 20 32 L 20 15.996094 C 20 15.445312 20.445312 15 20.996094 15 Z M 20.996094 15 "/>
     <path d="M 25.015625 15 L 29.015625 15 L 29.015625 33 L 25.015625 33 Z M 25.015625 15 "/>
    </g>
   </g>
  </g>
 </g>
 <g>
  <g clip-path="url(#3)">
   <g transform="translate(0,-1)">
    <g>
     <path d="M 13 15 L 17 15 C 17.550781 15 18 15.445312 18 15.996094 L 18 32 C 18 32.550781 17.550781 33 17 33 L 13 33 C 12.449219 33 12 32.550781 12 32 L 12 15.996094 C 12 15.445312 12.449219 15 13 15 Z M 13 15 " fill="#f9f9f9"/>
     <path d="M 30 15 C 34.972656 15 39 19.027344 39 24 C 39 28.96875 34.972656 33 30 33 C 25.03125 33 21 28.96875 21 24 C 21 19.027344 25.03125 15 30 15 Z M 30 15 " fill="#f9f9f9"/>
     <path d="M 20.996094 15 L 26 15 C 26.550781 15 27 15.445312 27 15.996094 L 27 32 C 27 32.550781 26.550781 33 26 33 L 20.996094 33 C 20.445312 33 20 32.550781 20 32 L 20 15.996094 C 20 15.445312 20.445312 15 20.996094 15 Z M 20.996094 15 " fill="#f9f9f9"/>
     <path d="M 25.015625 15 L 29.015625 15 L 29.015625 33 L 25.015625 33 Z M 25.015625 15 " fill="#f9f9f9"/>
    </g>
   </g>
  </g>
 </g>
 <g>
  <g transform="translate(0,-1004.3622)">
   <path d="m 1,1043.3622 0,4 c 0,2.216 1.784,4 4,4 l 38,0 c 2.216,0 4,-1.784 4,-4 l 0,-4 c 0,2.216 -1.784,4 -4,4 l -38,0 c -2.216,0 -4,-1.784 -4,-4 z" opacity="0.1"/>
  </g>
 </g>
</svg>

<svg viewBox="0 0 48 48"><defs><linearGradient id="linearGradient3764" x1="1" x2="47" gradientUnits="userSpaceOnUse" gradientTransform="translate(-48.000001,0.00221467)"><stop stop-color="#5ba547" stop-opacity="1"/><stop offset="1" stop-color="#64b34e" stop-opacity="1"/></linearGradient><clipPath id="clipPath-769443442"><g transform="translate(0,-1004.3622)"><rect rx="4" y="1005.36" x="1" height="46" width="46" fill="#1890d0"/></g></clipPath><clipPath id="clipPath-782573620"><g transform="translate(0,-1004.3622)"><rect rx="4" y="1005.36" x="1" height="46" width="46" fill="#1890d0"/></g></clipPath></defs><g><path d="m 1 43 l 0 0.25 c 0 2.216 1.784 4 4 4 l 38 0 c 2.216 0 4 -1.784 4 -4 l 0 -0.25 c 0 2.216 -1.784 4 -4 4 l -38 0 c -2.216 0 -4 -1.784 -4 -4 z m 0 0.5 l 0 0.5 c 0 2.216 1.784 4 4 4 l 38 0 c 2.216 0 4 -1.784 4 -4 l 0 -0.5 c 0 2.216 -1.784 4 -4 4 l -38 0 c -2.216 0 -4 -1.784 -4 -4 z" opacity="0.02"/><path d="m 1 43.25 l 0 0.25 c 0 2.216 1.784 4 4 4 l 38 0 c 2.216 0 4 -1.784 4 -4 l 0 -0.25 c 0 2.216 -1.784 4 -4 4 l -38 0 c -2.216 0 -4 -1.784 -4 -4 z" opacity="0.05"/><path d="m 1 43 l 0 0.25 c 0 2.216 1.784 4 4 4 l 38 0 c 2.216 0 4 -1.784 4 -4 l 0 -0.25 c 0 2.216 -1.784 4 -4 4 l -38 0 c -2.216 0 -4 -1.784 -4 -4 z" opacity="0.1"/></g><g><rect width="46" height="46" x="-47" y="1" rx="4" transform="matrix(0,-1,1,0,0,0)" fill="url(#linearGradient3764)" fill-opacity="1"/></g><g><g clip-path="url(#clipPath-769443442)"><g opacity="0.1"><!-- color: #64b34e --><g><path d="m 13 15 l 4 0 c 0.551 0 1 0.445 1 0.996 l 0 16 c 0 0.551 -0.449 1 -1 1 l -4 0 c -0.551 0 -1 -0.449 -1 -1 l 0 -16 c 0 -0.551 0.449 -0.996 1 -0.996 m 0 0" fill="#000"/><path d="m 30 15 c 4.973 0 9 4.03 9 9 c 0 4.969 -4.03 9 -9 9 c -4.969 0 -9 -4.03 -9 -9 c 0 -4.973 4.03 -9 9 -9 m 0 0" fill="#000"/><path d="m 20.996 15 l 5 0 c 0.551 0 1 0.445 1 0.996 l 0 16 c 0 0.551 -0.449 1 -1 1 l -5 0 c -0.551 0 -0.996 -0.449 -0.996 -1 l 0 -16 c 0 -0.551 0.445 -0.996 0.996 -0.996 m 0 0" fill="#000"/><path d="m 25.02 15 l 4 0 l 0 18 l -4 0 m 0 -18" fill="#000"/></g></g></g></g><g><g clip-path="url(#clipPath-782573620)"><g transform="translate(0,-1)"><!-- color: #64b34e --><g><path d="m 13 15 l 4 0 c 0.551 0 1 0.445 1 0.996 l 0 16 c 0 0.551 -0.449 1 -1 1 l -4 0 c -0.551 0 -1 -0.449 -1 -1 l 0 -16 c 0 -0.551 0.449 -0.996 1 -0.996 m 0 0" fill="#f9f9f9"/><path d="m 30 15 c 4.973 0 9 4.03 9 9 c 0 4.969 -4.03 9 -9 9 c -4.969 0 -9 -4.03 -9 -9 c 0 -4.973 4.03 -9 9 -9 m 0 0" fill="#f9f9f9"/><path d="m 20.996 15 l 5 0 c 0.551 0 1 0.445 1 0.996 l 0 16 c 0 0.551 -0.449 1 -1 1 l -5 0 c -0.551 0 -0.996 -0.449 -0.996 -1 l 0 -16 c 0 -0.551 0.445 -0.996 0.996 -0.996 m 0 0" fill="#f9f9f9"/><path d="m 25.02 15 l 4 0 l 0 18 l -4 0 m 0 -18" fill="#f9f9f9"/></g></g></g></g><g><g transform="translate(0,-1004.3622)"><path d="m 1 1043.36 0 4 c 0 2.216 1.784 4 4 4 l 38 0 c 2.216 0 4 -1.784 4 -4 l 0 -4 c 0 2.216 -1.784 4 -4 4 l -38 0 c -2.216 0 -4 -1.784 -4 -4 z" opacity="0.1"/></g></g></svg>
